!!!COM: Scriabin, Alexander
!!!OTL@@FR: Mazurka
!!!OPR@@FR: 9 Mazurkas
!!!OPS: 25
!!!ONM: 2
!!!ODT: 1899
!!!AGN: Mazurka
**kern	**kern	**dynam
*staff2	*staff1	*staff1/2
*Ipiano	*Ipiano	*
*clefF4	*clefG2	*
*k[]	*k[]	*
*C:	*C:	*
*M3/4	*M3/4	*
=1	=1	=1
*^	*	*
4c 4e	4rEE	12g#XL	.
.	.	12ee	.
.	.	24r	.
.	.	24g#Jk	.
4F 4c 4e	4rEE	4a	.
4F 4d	8cL	12aL	.
.	.	12g#	.
.	8BJ	.	.
.	.	12aJ	.
*v	*v	*	*
=2	=2	=2
4r	12ddL	.
.	12b	.
.	12aJ	.
4E 4B 4d	2gn	.
4A 4c	.	.
=3	=3	=3
*^	*	*
4rc	2.D	12fL	.
.	.	12cc	.
.	.	12ddJ	.
.	.	8qdd/	.
4c 4f	.	12bbL	.
.	.	12aa	.
.	.	12ffJ	.
4f 4a	.	12ddL	.
.	.	12cc	.
.	.	12aJ	.
*clefG2	*	*	*
=4	=4	=4	=4
4G 4cc	2.f	4.ee	.
4G#X 4b	.	.	.
.	.	8dd	.
4A 4a	.	8ccL	.
.	.	8cc#XJ	.
=5	=5	=5	=5
*	*^	*	*
2.a	2f	4B-X/	12cc#XL	.
.	.	.	12aa	.
.	.	.	24r	.
.	.	.	24cc#Jk	.
.	.	4Bn/	8ee	.
.	.	.	4dd	.
.	4f#X	4cn/	.	.
.	.	.	8dd#X	.
=6	=6	=6	=6	=6
2b	4.g	4c#X/	12eeL	.
.	.	.	12bb	.
.	.	.	24r	.
.	.	.	24eeJk	.
.	.	4dn/	8gg	.
.	4g#X	.	4ffn	.
4ccn	.	4d#X/	.	.
.	8a	.	8ff#X	.
*	*v	*v	*	*
=7	=7	=7	=7
12ccL	8d#XL	12ggL	.
12ddn	.	12bb	.
.	8eJ	.	.
12ccJ	.	12cccJ	.
8bL 8gg#X	4f	12eeeL	.
.	.	12ddd	.
8ccJ 8aa	.	.	.
.	.	12cccJ	.
8ddL	4f#X 4aa	12bbL	.
.	.	8qddd/	.
.	.	12ccc	.
8dd#XJ	.	.	.
.	.	12aaJ	.
=8	=8	=8	=8
12eeL 12gg	4g	12cccL	.
12.cc	.	12ee	.
.	.	12ffJ	.
24gJk	.	.	.
4g	4f	12ggL	.
.	.	12a	.
.	.	12bJ	.
4g	4e	12ddL	.
.	.	12cc	.
.	.	12gJ	.
*clefF4	*	*	*
=9	=9	=9	=9
4c 4e	4rEE	12g#XL	.
.	.	12ee	.
.	.	24r	.
.	.	24g#Jk	.
4F 4c 4e	4rEE	4a	.
4F 4d	8cL	12aL	.
.	.	12g#	.
.	8BJ	.	.
.	.	12aJ	.
*v	*v	*	*
=10	=10	=10
4r	12ddL	.
.	12b	.
.	12aJ	.
4E 4B 4d	2gn	.
4A 4c	.	.
=11	=11	=11
*^	*	*
4rc	2.D	12fL	.
.	.	12cc	.
.	.	12ddJ	.
.	.	8qdd/	.
4c 4f	.	12bbL	.
.	.	12aa	.
.	.	12ffJ	.
4f 4a	.	12ddL	.
.	.	12cc	.
.	.	12aJ	.
*clefG2	*	*	*
=12	=12	=12	=12
4G 4cc	2.f	4.ee	.
4G#X 4b	.	.	.
.	.	8dd	.
4A 4a	.	8ccL	.
.	.	8cc#XJ	.
=13	=13	=13	=13
*	*^	*	*
2.a	2f	4B-X/	12cc#XL	.
.	.	.	12aa	.
.	.	.	24r	.
.	.	.	24cc#Jk	.
.	.	4Bn/	8ee	.
.	.	.	4dd	.
.	4f#X	4cn/	.	.
.	.	.	8dd#X	.
=14	=14	=14	=14	=14
2b	4.g	4c#X/	12eeL	.
.	.	.	12bb	.
.	.	.	24r	.
.	.	.	24eeJk	.
.	.	4dn/	8gg	.
.	4g#X	.	4ffn	.
4ccn	.	4d#X/	.	.
.	8a	.	8ff#X	.
*	*v	*v	*	*
=15	=15	=15	=15
*	*	*^	*
12ccL	8d#XL	12ggL	8rc	.
12ddn	.	12bb	.	.
.	8eJ	.	8gg	.
12ccJ	.	12cccJ	.	.
12a#XL	4dn	12eeeL	4gg	.
12b	.	12ddd	.	.
12eeJ	.	12cccJ	.	.
8ddL	4d	12bbL	8ffnL	.
.	.	12aa	.	.
8ccJ	.	.	8ff#XJ	.
.	.	12bbJ	.	.
*v	*v	*	*	*
=16	=16	=16	=16
4G 4b	12dddL	8dd	.
.	12ee	.	.
.	.	8rc	.
.	12ff#XJ	.	.
4r	12ggL	4rc	.
.	12a	.	.
.	12bJ	.	.
*clefF4	*	*	*
4Fn 4B 4g	12eeL	4rc	.
.	12dd	.	.
.	12gJ	.	.
=17	=17	=17	=17
*^	*	*	*
4rc	2.E	2.ryy	4r	.
2d 2g	.	.	12a#XL	.
.	.	.	12cc#X	.
.	.	.	12bJ	.
.	.	.	12bL	.
.	.	.	12a#	.
.	.	.	12bJ	.
=18	=18	=18	=18	=18
*	*^	*	*	*
4rc	4rEE	2.E\	4raa	4.ff#X	.
4b	2B	.	12ff#L	.	.
.	.	.	12aan	.	.
.	.	.	.	8ee	.
.	.	.	12ggJ	.	.
8.bL	.	.	12ggL	8eeL	.
.	.	.	12ff#	.	.
.	.	.	.	8ddJ	.
.	.	.	12ggJ	.	.
16gJk	.	.	.	.	.
*v	*v	*v	*	*	*
=19	=19	=19	=19
2.A 2.g	8bbL	12ddL	.
.	.	12b	.
.	[8ff#XJ	.	.
.	.	12ddJ	.
.	12ff#L]	4cc	.
.	12dd#X	.	.
.	12eeJ	.	.
.	12bbL	4cc#X	.
.	12gg#X	.	.
.	12aaJ	.	.
=20	=20	=20	=20
*^	*	*	*
2g	2.D 2.A	4aa	12cc#XL	.
.	.	.	12a	.
.	.	.	12a#XJ	.
.	.	12ggnL	12bL	.
.	.	12ff#X	12ccn	.
.	.	12eeJ	12cc#XJ	.
4f#X	.	4aan	12cc#L	.
.	.	.	12ee	.
.	.	.	12ddJ	.
=21	=21	=21	=21	=21
4rc	2.D	2.ryy	4r	.
2c 2fn	.	.	12g#XL	.
.	.	.	12b	.
.	.	.	12aJ	.
.	.	.	12aL	.
.	.	.	12g#	.
.	.	.	12aJ	.
=22	=22	=22	=22	=22
*	*^	*	*	*
4rc	4rEE	2D\	4raa	4.ee	.
4a	2A	.	12eeL	.	.
.	.	.	12ggn	.	.
.	.	.	.	8dd	.
.	.	.	12ffJ	.	.
8.aL	.	4r	12ffL	8ddL	.
.	.	.	12ee	.	.
.	.	.	.	8ccJ	.
.	.	.	12ffJ	.	.
16fJk	.	.	.	.	.
*v	*v	*v	*	*	*
=23	=23	=23	=23
2.G 2.f	8aaL	12ccL	.
.	.	12a	.
.	[8eeJ	.	.
.	.	12ccJ	.
.	12eeL]	4b-X	.
.	12cc#X	.	.
.	12ddJ	.	.
.	12aaL	4bn	.
.	12ff#X	.	.
.	12ggJ	.	.
=24	=24	=24	=24
*^	*	*	*
2.fn	4A	12ggL	4ccn	.
.	.	12bb	.	.
.	.	12aaJ	.	.
.	4B-X	12ggL	4cc#X	.
.	.	12aa	.	.
.	.	12ggJ	.	.
.	4Bn	12ff#XL	8dd	.
.	.	12gg	.	.
.	.	.	8rc	.
.	.	12gJ	.	.
*	*	*v	*v	*
=25	=25	=25	=25
4c 4e	4rEE	12g#XL	.
.	.	12ee	.
.	.	24r	.
.	.	24g#Jk	.
4F 4c 4e	4rEE	4a	.
4F 4d	8cL	12aL	.
.	.	12g#	.
.	8BJ	.	.
.	.	12aJ	.
*v	*v	*	*
=26	=26	=26
4r	12ddL	.
.	12b	.
.	12aJ	.
4E 4B 4d	2gn	.
4A 4c	.	.
=27	=27	=27
*^	*	*
4rc	2.D	12fL	.
.	.	12cc	.
.	.	12ddJ	.
.	.	8qdd/	.
4c 4f	.	12bbL	.
.	.	12aa	.
.	.	12ffJ	.
4f 4a	.	12ddL	.
.	.	12cc	.
.	.	12aJ	.
*clefG2	*	*	*
=28	=28	=28	=28
4G 4cc	2.f	4.ee	.
4G#X 4b	.	.	.
.	.	8dd	.
4A 4a	.	8ccL	.
.	.	8cc#XJ	.
=29	=29	=29	=29
*	*^	*	*
2.a	2f	4B-X/	12cc#XL	.
.	.	.	12aa	.
.	.	.	24r	.
.	.	.	24cc#Jk	.
.	.	4Bn/	8ee	.
.	.	.	4dd	.
.	4f#X	4cn/	.	.
.	.	.	8dd#X	.
=30	=30	=30	=30	=30
2b	4.g	4c#X/	12eeL	.
.	.	.	12bb	.
.	.	.	24r	.
.	.	.	24eeJk	.
.	.	4dn/	8gg	.
.	4g#X	.	4ffn	.
4ccn	.	4d#X/	.	.
.	8a	.	8ff#X	.
*	*v	*v	*	*
=31	=31	=31	=31
12ccL	8d#XL	12ggL	.
12ddn	.	12bb	.
.	8eJ	.	.
12ccJ	.	12cccJ	.
8bL 8gg#X	4f	12eeeL	.
.	.	12ddd	.
8ccJ 8aa	.	.	.
.	.	12cccJ	.
8ddL	4f#X 4aa	12bbL	.
.	.	8qddd/	.
.	.	12ccc	.
8dd#XJ	.	.	.
.	.	12aaJ	.
=32	=32	=32	=32
12eeL 12ggn	4g	12cccL	.
12.cc	.	12ee	.
.	.	12ffJ	.
24gJk	.	.	.
4g	4f	12ggL	.
.	.	12a	.
.	.	12bJ	.
6g	4e	12ddL	.
.	.	12ccJ	.
12g#X	.	12r	.
*clefF4	*	*	*
=33	=33	=33	=33
4rc	4AAA 4AA	4r	.
4a	[2E [2c	4.cc	.
4g#X	.	.	.
.	.	8cc	.
=34	=34	=34	=34
*	*	*^	*
4gn	4E] 4c]	12ccL	4rc	.
.	.	12dd	.	.
.	.	12ccJ	.	.
*clefG2	*	*	*	*
2c 2g 2cc	4rc	4b 4bb	2ee	.
.	4rc	4a 4aa	.	.
*	*	*v	*v	*
*clefF4	*	*	*
=35	=35	=35	=35
4rc	4AAA 4AA	4r	.
2c 2a	8FL	12ddL	.
.	.	12dd#X	.
.	8EJ	.	.
.	.	12eeJ	.
.	4Dn	8aaL	.
.	.	16r	.
.	.	16ffJk	.
*v	*v	*	*
=36	=36	=36
4r	2ee	.
4F 4c 4a	.	.
4F 4B 4a	4dd	.
=37	=37	=37
*^	*	*
4AAA 4AA	4rEE	4r	.
2F 2g#X	4c	4.dd	.
.	4B	.	.
.	.	8dd	.
=38	=38	=38	=38
4B-X 4g#X	4F	12ddL	.
.	.	12cc#X	.
.	.	12ddJ	.
2Bn 2g#	4D	4ff	.
.	4E	4ee	.
*v	*v	*	*
=39	=39	=39
4AA	2ccn	.
4E 4c 4a	.	.
4D#X 4c 4f	8bL	.
.	8aJ	.
=40	=40	=40
4E 4c 4e	8g#XL	.
.	8aJ	.
4c 4a	8ffL	.
.	8dd#XJ	.
*clefG2	*	*
4a 4cc	8eeL	.
.	8ffJ	.
=41	=41	=41
*^	*	*
4raa	2.A	4r	.
[4gn 4ddn	.	4.ee	.
4g] 4cc#X	.	.	.
.	.	8ee	.
=42	=42	=42	=42
*	*	*^	*
4raa	2.E	4ee	4rc	.
4g 4ccn	.	4b 4bb	2ee	.
4c 4g	.	4a 4aa	.	.
*v	*v	*	*	*
*	*v	*v	*
*clefF4	*	*
=43	=43	=43
*^	*	*
*	*^	*	*
4rc	4rEE	2.D\	4ee	.
4g	8cL	.	8aL	.
.	8BJ	.	8bJ	.
4f#X	4A	.	8.ddL	.
.	.	.	16ccJk	.
=44	=44	=44	=44	=44
*	*	*	*^	*
4rc	4rEE	2.AA\ 2.A	12ccL	4rc	.
.	.	.	12dd	.	.
.	.	.	12ccJ	.	.
4c 4fn 4cc	4rEE	.	4b 4bb	4ff	.
4F 4c 4f	4rEE	.	4a 4aa	4ff	.
*	*	*	*v	*v	*
=45	=45	=45	=45	=45
4rc	4rEE	2.GG/ 2.G	4r	.
2F 2f	4c	.	4a 4aa	.
.	4B	.	4a-X 4aa-X	.
=46	=46	=46	=46	=46
4rc	4rEE	2.DD/ 2.D	4r	.
2F 2f	4B-X	.	4a-X 4aa-X	.
.	4Bn	.	4g 4gg	.
=47	=47	=47	=47	=47
*	*	*	*^	*
2.ryy	4rEE	2.GG/	4raa	4rc	.
.	2D 2B	.	4f#X 4ff#X	2b	.
.	.	.	4fn 4ffn	.	.
=48	=48	=48	=48	=48	=48
2.ryy	4D	2.GG#X\ 2.B	4f 4ff	2.b	.
.	4E	.	4e 4ee	.	.
.	4F	.	4d 4dd	.	.
*	*v	*v	*	*	*
*	*	*v	*v	*
=49	=49	=49	=49
4rc	4AAA 4AA	4r	.
4a	[2E [2c	4.cc	.
4g#X	.	.	.
.	.	8cc	.
=50	=50	=50	=50
*	*	*^	*
4gn	4E] 4c]	12ccL	4rc	.
.	.	12dd	.	.
.	.	12ccJ	.	.
*clefG2	*	*	*	*
2c 2g 2cc	4rc	4b 4bb	2ee	.
.	4rc	4a 4aa	.	.
*	*	*v	*v	*
*clefF4	*	*	*
=51	=51	=51	=51
4rc	4AAA 4AA	4r	.
2c 2a	8FL	12ddL	.
.	.	12dd#X	.
.	8EJ	.	.
.	.	12eeJ	.
.	4Dn	8aaL	.
.	.	16r	.
.	.	16ffJk	.
*v	*v	*	*
=52	=52	=52
4r	2ee	.
4F 4c 4a	.	.
4F 4B 4a	4dd	.
=53	=53	=53
*^	*	*
4AAA 4AA	4rEE	4r	.
2F 2g#X	4c	4.dd	.
.	4B	.	.
.	.	8dd	.
=54	=54	=54	=54
4B-X 4g#X	4F	12ddL	.
.	.	12cc#X	.
.	.	12ddJ	.
2Bn 2g#	4D	4ff	.
.	4E	4ee	.
*v	*v	*	*
=55	=55	=55
4AA	2ccn	.
4E 4c 4a	.	.
4D#X 4c 4f	8bL	.
.	8aJ	.
=56	=56	=56
4E 4c 4e	8g#XL	.
.	8aJ	.
4c 4a	8ffL	.
.	8dd#XJ	.
*clefG2	*	*
4a 4cc	8eeL	.
.	8ffJ	.
=57	=57	=57
*^	*	*
4raa	2.A	4r	.
[4gn 4ddn	.	4.ee	.
4g] 4cc#X	.	.	.
.	.	8ee	.
=58	=58	=58	=58
*	*	*^	*
4raa	2.E	4ee	4rc	.
4g 4ccn	.	4b 4bb	2ee	.
4c 4g	.	4a 4aa	.	.
*v	*v	*	*	*
*	*v	*v	*
*clefF4	*	*
=59	=59	=59
*^	*	*
*	*^	*	*
4rc	4rEE	2.D\	4ee	.
4g	8cL	.	8aL	.
.	8BJ	.	8bJ	.
4f#X	4A	.	8.ddL	.
.	.	.	16ccJk	.
=60	=60	=60	=60	=60
*	*	*	*^	*
4rc	4rEE	2.AA\ 2.A	12ccL	4rc	.
.	.	.	12dd	.	.
.	.	.	12ccJ	.	.
4c 4fn 4cc	4rEE	.	4b 4bb	4ff	.
4F 4c 4f	4rEE	.	4a 4aa	4ff	.
*	*	*	*v	*v	*
=61	=61	=61	=61	=61
4rc	4rEE	2.GG/ 2.G	4r	.
2F 2f	4c	.	4a 4aa	.
.	4B	.	4a-X 4aa-X	.
=62	=62	=62	=62	=62
4rc	4rEE	2.DD/ 2.D	4r	.
2F 2f	4B-X	.	4a-X 4aa-X	.
.	4Bn	.	4g 4gg	.
*	*v	*v	*	*
=63	=63	=63	=63
*	*	*^	*
4rc	2.GG	4raa	4rc	.
2G 2f	.	4.gg	2b	.
.	.	8gg	.	.
=64	=64	=64	=64	=64
2.f	4A	12ggL	4cc	.
.	.	12bb	.	.
.	.	12aaJ	.	.
.	4B-X	12ggL	4cc#X	.
.	.	12aa	.	.
.	.	12ggJ	.	.
.	4Bn	12ff#XL	8dd	.
.	.	12gg	.	.
.	.	.	8rc	.
.	.	12gJ	.	.
*	*	*v	*v	*
=65	=65	=65	=65
4cn 4e	4rEE	12g#XL	.
.	.	12ee	.
.	.	24r	.
.	.	24g#Jk	.
4F 4c 4e	4rEE	4a	.
4F 4d	8cL	12aL	.
.	.	12g#	.
.	8BJ	.	.
.	.	12aJ	.
*v	*v	*	*
=66	=66	=66
4r	12ddL	.
.	12b	.
.	12aJ	.
4E 4B 4d	2gn	.
4A 4c	.	.
=67	=67	=67
*^	*	*
4rc	2.D	12fL	.
.	.	12cc	.
.	.	12ddJ	.
.	.	8qdd/	.
4c 4f	.	12bbL	.
.	.	12aa	.
.	.	12ffJ	.
4f 4a	.	12ddL	.
.	.	12cc	.
.	.	12aJ	.
*clefG2	*	*	*
=68	=68	=68	=68
4G 4cc	2.f	4.ee	.
4G#X 4b	.	.	.
.	.	8dd	.
4A 4a	.	8ccL	.
.	.	8cc#XJ	.
=69	=69	=69	=69
*	*^	*	*
2.a	2f	4B-X/	12cc#XL	.
.	.	.	12aa	.
.	.	.	24r	.
.	.	.	24cc#Jk	.
.	.	4Bn/	8ee	.
.	.	.	4dd	.
.	4f#X	4cn/	.	.
.	.	.	8dd#X	.
=70	=70	=70	=70	=70
2b	4.g	4c#X/	12eeL	.
.	.	.	12bb	.
.	.	.	24r	.
.	.	.	24eeJk	.
.	.	4dn/	8gg	.
.	4g#X	.	4ffn	.
4ccn	.	4d#X/	.	.
.	8a	.	8ff#X	.
*	*v	*v	*	*
=71	=71	=71	=71
12ccL	8d#XL	12ggL	.
12ddn	.	12bb	.
.	8eJ	.	.
12ccJ	.	12cccJ	.
8bL 8gg#X	4f	12eeeL	.
.	.	12ddd	.
8ccJ 8aa	.	.	.
.	.	12cccJ	.
8ddL	4f#X 4aa	12bbL	.
.	.	8qddd/	.
.	.	12ccc	.
8dd#XJ	.	.	.
.	.	12aaJ	.
=72	=72	=72	=72
12eeL 12ggn	4g	12cccL	.
12.cc	.	12ee	.
.	.	12ffJ	.
24gJk	.	.	.
4g	4f	12ggL	.
.	.	12a	.
.	.	12bJ	.
4g	4e	12ddL	.
.	.	12cc	.
.	.	12gJ	.
*clefF4	*	*	*
=73	=73	=73	=73
4c 4e	4rEE	12g#XL	.
.	.	12ee	.
.	.	24r	.
.	.	24g#Jk	.
4F 4c 4e	4rEE	4a	.
4F 4d	8cL	12aL	.
.	.	12g#	.
.	8BJ	.	.
.	.	12aJ	.
*v	*v	*	*
=74	=74	=74
4r	12ddL	.
.	12b	.
.	12aJ	.
4E 4B 4d	2gn	.
4A 4c	.	.
=75	=75	=75
*^	*	*
4rc	2.D	12fL	.
.	.	12cc	.
.	.	12ddJ	.
.	.	8qdd/	.
4c 4f	.	12bbL	.
.	.	12aa	.
.	.	12ffJ	.
4f 4a	.	12ddL	.
.	.	12cc	.
.	.	12aJ	.
*clefG2	*	*	*
=76	=76	=76	=76
4G 4cc	2.f	4.ee	.
4G#X 4b	.	.	.
.	.	8dd	.
4A 4a	.	8ccL	.
.	.	8cc#XJ	.
=77	=77	=77	=77
*	*^	*	*
2.a	2f	4B-X/	12cc#XL	.
.	.	.	12aa	.
.	.	.	24r	.
.	.	.	24cc#Jk	.
.	.	4Bn/	8ee	.
.	.	.	4dd	.
.	4f#X	4cn/	.	.
.	.	.	8dd#X	.
=78	=78	=78	=78	=78
2b	4.g	4c#X/	12eeL	.
.	.	.	12bb	.
.	.	.	24r	.
.	.	.	24eeJk	.
.	.	4dn/	8gg	.
.	4g#X	.	4ffn	.
4ccn	.	4d#X/	.	.
.	8a	.	8ff#X	.
*	*v	*v	*	*
=79	=79	=79	=79
*	*	*^	*
12ccL	8d#XL	12ggL	8rc	.
12ddn	.	12bb	.	.
.	8eJ	.	8gg	.
12ccJ	.	12cccJ	.	.
12a#XL	4dn	12eeeL	4gg	.
12b	.	12ddd	.	.
12eeJ	.	12cccJ	.	.
8ddL	4d	12bbL	8ffnL	.
.	.	12aa	.	.
8ccJ	.	.	8ff#XJ	.
.	.	12bbJ	.	.
*v	*v	*	*	*
=80	=80	=80	=80
4G 4b	12dddL	8dd	.
.	12ee	.	.
.	.	8rc	.
.	12ff#XJ	.	.
4r	12ggL	4rc	.
.	12a	.	.
.	12bJ	.	.
*clefF4	*	*	*
4Fn 4B 4g	12eeL	4rc	.
.	12dd	.	.
.	12gJ	.	.
=81	=81	=81	=81
*^	*	*	*
4rc	2.E	2.ryy	4r	.
2d 2g	.	.	12a#XL	.
.	.	.	12cc#X	.
.	.	.	12bJ	.
.	.	.	12bL	.
.	.	.	12a#	.
.	.	.	12bJ	.
=82	=82	=82	=82	=82
*	*^	*	*	*
4rD	4rEE	2.E\	4raa	4.ff#X	.
4b	2B	.	12ff#L	.	.
.	.	.	12aan	.	.
.	.	.	.	8ee	.
.	.	.	12ggJ	.	.
8.bL	.	.	12ggL	8eeL	.
.	.	.	12ff#	.	.
.	.	.	.	8ddJ	.
.	.	.	12ggJ	.	.
16gJk	.	.	.	.	.
*v	*v	*v	*	*	*
=83	=83	=83	=83
2.A 2.g	8bbL	12ddL	.
.	.	12b	.
.	[8ff#XJ	.	.
.	.	12ddJ	.
.	12ff#L]	4cc	.
.	12dd#X	.	.
.	12eeJ	.	.
.	12bbL	4cc#X	.
.	12gg#X	.	.
.	12aaJ	.	.
=84	=84	=84	=84
*^	*	*	*
2g	2.D 2.A	4aa	12cc#XL	.
.	.	.	12a	.
.	.	.	12a#XJ	.
.	.	12ggnL	12bL	.
.	.	12ff#X	12ccn	.
.	.	12eeJ	12cc#XJ	.
4f#X	.	4aan	12cc#L	.
.	.	.	12ee	.
.	.	.	12ddJ	.
=85	=85	=85	=85	=85
4rc	2.D	2.ryy	4r	.
2c 2fn	.	.	12g#XL	.
.	.	.	12b	.
.	.	.	12aJ	.
.	.	.	12aL	.
.	.	.	12g#	.
.	.	.	12aJ	.
=86	=86	=86	=86	=86
*	*^	*	*	*
4rc	4rEE	2.D\	4raa	4.ee	.
4a	2A	.	12eeL	.	.
.	.	.	12ggn	.	.
.	.	.	.	8dd	.
.	.	.	12ffJ	.	.
8.aL	.	.	12ffL	8ddL	.
.	.	.	12ee	.	.
.	.	.	.	8ccJ	.
.	.	.	12ffJ	.	.
16fJk	.	.	.	.	.
*v	*v	*v	*	*	*
=87	=87	=87	=87
2.G 2.f	8aaL	12ccL	.
.	.	12a	.
.	[8eeJ	.	.
.	.	12ccJ	.
.	12eeL]	4b-X	.
.	12cc#X	.	.
.	12ddJ	.	.
.	12aaL	4bn	.
.	12ff#X	.	.
.	12ggJ	.	.
=88	=88	=88	=88
*^	*	*	*
2.fn	4A	12ggL	4ccn	.
.	.	12bb	.	.
.	.	12aaJ	.	.
.	4B-X	12ggL	4cc#X	.
.	.	12aa	.	.
.	.	12ggJ	.	.
.	4Bn	12ff#XL	8dd	.
.	.	12gg	.	.
.	.	.	8rc	.
.	.	12gJ	.	.
*	*	*v	*v	*
=89	=89	=89	=89
4c 4e	4rEE	12g#XL	.
.	.	12ee	.
.	.	24r	.
.	.	24g#Jk	.
4F 4c 4e	4rEE	4a	.
4F 4d	8cL	12aL	.
.	.	12g#	.
.	8BJ	.	.
.	.	12aJ	.
*v	*v	*	*
=90	=90	=90
4r	12ddL	.
.	12b	.
.	12aJ	.
4E 4B 4d	2gn	.
4A 4c	.	.
=91	=91	=91
*^	*	*
4rc	2.D	12fL	.
.	.	12cc	.
.	.	12ddJ	.
.	.	8qdd/	.
4c 4f	.	12bbL	.
.	.	12aa	.
.	.	12ffJ	.
4f 4a	.	12ddL	.
.	.	12cc	.
.	.	12aJ	.
*clefG2	*	*	*
=92	=92	=92	=92
4G 4cc	2.f	4.ee	.
4G#X 4b	.	.	.
.	.	8dd	.
4A 4a	.	8ccL	.
.	.	8cc#XJ	.
=93	=93	=93	=93
*	*^	*	*
2.a	2f	4B-X/	12cc#XL	.
.	.	.	12aa	.
.	.	.	24r	.
.	.	.	24cc#Jk	.
.	.	4Bn/	8ee	.
.	.	.	4dd	.
.	4f#X	4cn/	.	.
.	.	.	8dd#X	.
=94	=94	=94	=94	=94
2b	4.g	4c#X/	12eeL	.
.	.	.	12bb	.
.	.	.	24r	.
.	.	.	24eeJk	.
.	.	4dn/	8gg	.
.	4g#X	.	4ffn	.
4ccn	.	4d#X/	.	.
.	8a	.	8ff#X	.
*	*v	*v	*	*
=95	=95	=95	=95
12ccL	8d#XL	12ggL	.
12ddn	.	12bb	.
.	8eJ	.	.
12ccJ	.	12cccJ	.
8bL 8gg#X	4f	12eeeL	.
.	.	12ddd	.
8ccJ 8aa	.	.	.
.	.	12cccJ	.
8ddL	4f#X 4aa	12bbL	.
.	.	8qddd/	.
.	.	12ccc	.
8dd#XJ	.	.	.
.	.	12aaJ	.
=96	=96	=96	=96
12eeL 12ggn	4g	12cccL	.
12.cc	.	12ee	.
.	.	12ffJ	.
24gJk	.	.	.
4g	4f	12ggL	.
.	.	12a	.
.	.	12bJ	.
4g	6e	12ddL	.
.	.	12cc	.
.	12c	12gJ 12ee	.
*v	*v	*	*
=97	=97	=97
*	*^	*
4f	12aaL	4rc	.
.	12cc	.	.
.	12ddJ	.	.
4d	12ffL	4rc	.
.	12a	.	.
.	12ccJ	.	.
*clefF4	*	*	*
4G 4f	12eeL	[4b	.
.	12dd	.	.
.	12eeJ	.	.
=98	=98	=98	=98
2.C 2.G 2.e	12ggL	4b]	.
.	12ee	.	.
.	12ddJ	.	.
.	2cc	2cc	.
*	*v	*v	*
==	==	==
*-	*-	*-
!!!system-decoration: {(*)}
!!!ENC: Bryan Jacob Bell
!!!END: November 2021 to April 2022
!!!PED: Günter Philipp
!!!PTL: Ausgewählte Klavierwerke (Edition Peters)
